X:1
T:Title
%%score { 1 | 2 }
L:1/8
M:4/4
K:Eb
V:1 treble nm="Grand Piano"
V:2 bass 
V:1
 z4 z2[Q:1/4=112] E2 | G2 G2 G2 [FA]2 | [GB]2 [Ac]2 [GB]2 E2 | GGGG [FA]2 [EG]2 |[M:3/4] [DF]6 | %5
[M:1/4] E2 |[M:4/4] G2 G2 G2 [FA]2 | [GB]2 [Ac]2 [GB]2 E2 | GGGE [A,DF]2 [A,DF]2 |[M:2/4] [G,E]4 | %10
 [B,GB]4 |[M:4/4] [Ge][Ge][Ge][Ge] [Ge]2 [GB][Ac] | [Ge]2 [Ge]2 E3 F | G2 [GB]2 [GB]3 [GB] | %14
 [Ac]2 [Ac]2 [GB]4 | [Ge][Ge][Ge][Ge] [Ge]2 [GB][Ac] | [Ge]2 [Ge]2 E3 F | GGGE [DF]2 [DF]2 | %18
[M:3/4] E6 |] %19
V:2
 z4 z2 [E,G,]2 | [E,B,E]2 [E,B,E]2 [E,B,E]2 [E,B,]2 | [E,E]2 [E,E]2 [E,E]2 [E,G,]2 | %3
 [E,B,E][E,B,E][E,B,E][E,B,E] [D,B,]2 [E,B,]2 |[M:3/4] [B,,B,]6 |[M:1/4] [E,G,]2 | %6
[M:4/4] [E,B,E]2 [E,B,E]2 [E,B,E]2 [E,B,]2 | [E,E]2 [E,E]2 [E,E]2 [E,G,]2 | %8
 [E,B,E][E,B,E][E,B,E][E,G,] B,,2 B,,2 |[M:2/4] E,4 | E,4 | %11
[M:4/4] [E,B,][E,B,][E,B,][E,B,] [E,B,]2 [E,E][E,C] | [E,B,]2 [E,B,]2 [E,G,]3 [E,A,E] | %13
 [E,B,E]2 [E,E]2 [E,E]3 [E,E] | [A,E]2 [A,E]2 [E,E]4 | %15
 [E,B,][E,B,][E,B,][E,B,] [E,B,]2 [E,E][E,C] | [E,B,]2 [E,B,]2 [E,G,]3 [E,A,E] | %17
 [E,B,E][E,B,E][E,B,E][E,G,] [B,,A,]2 [B,,A,]2 |[M:3/4] [E,G,]6 |] %19

